X:203
T:Hamburgh Waltz,The,3voices. JGi.203
M:3/8
L:1/8
Q:3/8=55
S:Joshua Gibbons MS,1823,Tealby,Lincs.
R:waltz
O:Tealby,Lincolnshire
Z:VMP/R.Greig, 2009
K:C
[V:1]G/^F/|GGG|GGG|e2d|c2G|ce/d/c/B/|Gf/e/d/c/|Bg/f/e/d/|c2:|
[V:2]z|Z|Z|Z|z2G|G2G|A2A|B2B|C2:|
[V:3]z|z2G,|E,D,C,|G,2G,,|C,2z|C,2C,|F,2F,|G,2G,|C,2:|
[V:1]|:G|dd/B/G|e2c|dd/B/G|AfG|dd/B/G|e2c|B/c/d/B/G/B/|c2:|
[V:2]|:z|zgg|zgc’|zgg|zeg|zgg|zgc’|zgf|e2:|
[V:3]|:z|G,,G,G,|G,,G,G,|G,,G,G,|G,,G,G,|z2G,,|zzG,|g,,,G,G,|C,2:|
[V:1]|:g|gec’|c’ba|agf|fef|gec’|c’ba|gg/e/f/d/|c2:|
[V:2]|:G|GEc|cBA|AGF|FEG|GEc|cBA|GGG|E2:|
[V:3]|:z|C,,C,C,|C,,C,C,|C,,C,C,|C,,C,C,|C,,C,C,|C,,C,C,|C,,C,C,|C,2:|

